X:60
T:Drunken Scotchman THO1.060, The
M:C|
L:1/8
Z:vmp. Peter Dunk 2012.from a transcription by Fynn Titford-Mock 2006
B:Thompson's Compleat Collection of 200 Favourite Country Dances Vol.I,1758
Q:1/2=70
K:D
ABAF AFdF|A>Bd>F D/D/D B2|A>FD>F AA/A/ ag\
|1f>de>f d/d/d d2:|2f>de>f d/d/d df||
|:afdf agfd|gafg e/e/e fg|afdf abaf|geaf d/d/d df/g/|
afdf dAFD|GBdF E/E/E B2|FAGB A>a e>f\
|1f>de>f d/d/d df:|2f>de>f d/d/d d2|]

